X:143
T:Maid milking her cow
%%VWML:SBG-1-2-727-0
F:http://www.vwml.org/record/SBG/1/2/727
Z:Original Sibelius transcriptions by M. & S. Graebe
M:3/4
I:linebreak $
K:F
V:1 treble nm="P1"
V:1
 F F | F C F>G A F | c2 A2 z G | GB A3/2 G/ FG | F4 z c | c A c>d e d | c2 A2 z G | %7
 GF E3/2 B/ AG |$ F4 z A | cd c3/2 =B/ A ^G | c2 c2 z d | ed c3/2 =B/ A^G | A4 z =G |$ %13
 cd c3/2 _B/ A G | c2 c2 z B | AG F3/2 E/ AG | F4 z2 | cd A>G BA | F4 z2 | %19

